static/assets/img/icons/theme/navigation/up-left.svg

<svg height="24" viewBox="0 0 24 24" width="24" xmlns="http://www.w3.org/2000/svg"><g fill="none" fill-rule="evenodd"><path d="m0 0h24v24h-24z" opacity="0"/><g fill="#000"><rect height="14" opacity=".3" rx="1" transform="matrix(.70710678 -.70710678 .70710678 .70710678 -5.470563 12.5)" width="2" x="11.353553" y="5.853553"/><path d="m8.40380592 16.3890873c0 .5522847-.44771525 1-1 1s-1-.4477153-1-1v-8.48528138c0-.53539146.42167664-.97580024.95656278-.99905616l8.131728-.35355339c.5517635-.02398971 1.0185036.40385546 1.0424934.95561894.0239897.55176348-.4038555 1.01850366-.955619 1.04249338l-7.17516518.3119637z" fill-rule="nonzero"/></g></g></svg>

<svg width="24px" height="24px" viewBox="0 0 24 24" version="1.1" xmlns="http://www.w3.org/2000/svg" xmlns:xlink="http://www.w3.org/1999/xlink">
    <title>Icon For Up-left</title>
    <g stroke="none" stroke-width="1" fill="none" fill-rule="evenodd">
        <polygon points="0 0 24 0 24 24 0 24" opacity="0"></polygon>
        <rect fill="#000000" opacity="0.3" transform="translate(12.353553, 12.853553) rotate(-45.000000) translate(-12.353553, -12.853553) " x="11.3535534" y="5.85355339" width="2" height="14" rx="1"></rect>
        <path d="M8.40380592,16.3890873 C8.40380592,16.941372 7.95609067,17.3890873 7.40380592,17.3890873 C6.85152117,17.3890873 6.40380592,16.941372 6.40380592,16.3890873 L6.40380592,7.90380592 C6.40380592,7.36841446 6.82548256,6.92800568 7.3603687,6.90474976 L15.4920967,6.55119637 C16.0438602,6.52720666 16.5106003,6.95505183 16.5345901,7.50681531 C16.5585798,8.05857879 16.1307346,8.52531897 15.5789711,8.54930869 L8.40380592,8.86127239 L8.40380592,16.3890873 Z" fill="#000000" fill-rule="nonzero"></path>
    </g>
</svg>
